!!!OTL: WIR GNIESSEN DIE HIMMLISCHEN FREUDEN
!!!ARE: Europa, Mitteleuropa, Deutschland, Bayern
!!!SCT: E1765
!!!YEM: Copyright 1995, estate of Helmut Schaffrath.
**kern
*ICvox
*Ivox
*M6/8
*k[f#c#]
*D:
{8a
=1
8dd
8cc#
8b
8a
8b
8g
=2
4f#
8g
4a}
{8b
=3
8a
8g
8f#
8e
8f#
8d
=4
4c#
8d
4e}
{8a
=5
8g#
8a
8b
8b
8cc#
8a
=6
8g#
8a
8b
8b
8cc#}
{8dd
=7
8cc#
8b
8a
8b
8a
8g#
=8
4.a
4r}
{8a
=9
8e
8e
8f#
8g
8e
8c#
=10
4d
8e
4f#}
{8a
=11
8b
8a
8g
8f#
8e
8d
=12
4c#
8d
4e}
{8cc#
=13
8dd
8b
8cc#
8dd
8b
8cc#
=14
8dd
8b
8cc#
8dd
8cc#}
{8b
=15
8a
8g
8f#
8g
8e
8a
=16
4.d
4r}
==
!!!AGN: Luegen - Lied, Schlaraffenland
!!!ONB: ESAC (Essen Associative Code) Database: ERK3
!!!AMT: compound duple
!!!AIN: vox
!!!EED: Helmut Schaffrath
!!!EEV: 1.0
*-
